X: 38635
T: Storm Cloud
R: jig
M: 6/8
K: Gdorian
|:GFD FDC|B,2 G, G,B,G,|B,CC CB,C|DFF FDF|
GFD FDC|B,2 G, G,B,G,|B,CD FDC|B,G,G, G,3:|
|:GA=B BAG|FGA AGF|GA=B BAG|FDC B,G,G,|
GA=B BAG|FAc c2 A|=BAG FDC|B,G,G, G,3:|

